assets/images/shipping/truck-2.svg

<svg width="64" height="43" viewBox="0 0 64 43" fill="none" xmlns="http://www.w3.org/2000/svg">
<path fill-rule="evenodd" clip-rule="evenodd" d="M13.8047 0V17.9225H34.5425V0H13.8047ZM22.0449 1.37337H26.3023V4.87546H22.0449V1.37337ZM33.1692 16.5491H15.1781V1.37337H20.6715V6.24882H27.6757V1.37337H33.1692V16.5491ZM57.4478 40.8202C56.3145 41.8644 54.8287 42.4419 53.2877 42.4371C51.7468 42.4419 50.261 41.8644 49.1277 40.8202C47.9945 39.7761 47.2974 38.3424 47.1763 36.8063H25.477C25.477 38.4271 24.8332 39.9816 23.687 41.1278C22.5409 42.2739 20.9864 42.9178 19.3656 42.9178C17.7447 42.9178 16.1902 42.2739 15.0441 41.1278C13.898 39.9816 13.2541 38.4271 13.2541 36.8063H9.33997V21.6306H38.9361V8.85824H52.1891L63.8627 22.0426L64 36.8063H59.3992C59.278 38.3424 58.581 39.7761 57.4478 40.8202ZM49.9374 39.676C50.826 40.5645 52.0311 41.0637 53.2877 41.0637C54.5444 41.0637 55.7495 40.5645 56.6381 39.676C57.5267 38.7874 58.0259 37.5822 58.0259 36.3256C58.0259 35.069 57.5267 33.8638 56.6381 32.9752C55.7495 32.0867 54.5444 31.5875 53.2877 31.5875C52.0311 31.5875 50.826 32.0867 49.9374 32.9752C49.0488 33.8638 48.5496 35.069 48.5496 36.3256C48.5496 37.5822 49.0488 38.7874 49.9374 39.676ZM40.3094 23.0039H10.7133V35.4329H13.3227C13.5414 33.9868 14.2714 32.667 15.3802 31.7133C16.4889 30.7595 17.903 30.235 19.3656 30.235C20.8281 30.235 22.2422 30.7595 23.351 31.7133C24.4598 32.667 25.1898 33.9868 25.4084 35.4329H47.2449C47.4636 33.9868 48.1935 32.667 49.3023 31.7133C50.4111 30.7595 51.8252 30.235 53.2877 30.235C54.7503 30.235 56.1644 30.7595 57.2732 31.7133C58.3819 32.667 59.1119 33.9868 59.3306 35.4329H62.6266L62.4893 22.5919L51.571 10.2316H40.3094V23.0039ZM16.7332 40.2652C17.5124 40.7858 18.4284 41.0637 19.3656 41.0637C20.6222 41.0637 21.8273 40.5645 22.7159 39.676C23.6045 38.7874 24.1037 37.5822 24.1037 36.3256C24.1037 35.3885 23.8258 34.4724 23.3052 33.6932C22.7845 32.9141 22.0445 32.3068 21.1788 31.9481C20.313 31.5895 19.3603 31.4957 18.4412 31.6785C17.5221 31.8613 16.6778 32.3126 16.0152 32.9752C15.3526 33.6379 14.9013 34.4821 14.7185 35.4012C14.5357 36.3203 14.6295 37.273 14.9881 38.1388C15.3467 39.0046 15.954 39.7446 16.7332 40.2652ZM44.293 14.2144H49.4431L56.928 23.0039H44.293V14.2144ZM48.8251 15.5877H45.6663V21.6305H53.9752L48.8251 15.5877ZM2.53906 2.06006H9.33723V3.43343H2.53906V2.06006ZM9.40757 8.4462H0V9.81957H9.40757V8.4462ZM2.53906 14.9011H9.33723V16.2744H2.53906V14.9011Z" fill="#0029FF"/>
</svg>

<svg width="64" height="43" fill="none" xmlns="http://www.w3.org/2000/svg"><path fill-rule="evenodd" clip-rule="evenodd" d="M13.805 0v17.922h20.737V0H13.805zm8.24 1.373h4.257v3.502h-4.257V1.373zM33.169 16.55H15.18V1.373h5.493V6.25h7.004V1.373h5.493V16.55zm24.279 24.27a6.111 6.111 0 01-4.16 1.617 6.111 6.111 0 01-6.112-5.63H25.477a6.111 6.111 0 11-12.223 0H9.34V21.63h29.596V8.858H52.19l11.674 13.185L64 36.806h-4.6a6.112 6.112 0 01-1.952 4.014zm-7.51-1.144a4.738 4.738 0 106.7-6.701 4.738 4.738 0 00-6.7 6.701zm-9.629-16.672H10.713v12.429h2.61a6.112 6.112 0 0112.085 0h21.837a6.112 6.112 0 0112.086 0h3.296l-.138-12.841-10.918-12.36H40.309v12.772zM16.733 40.265a4.738 4.738 0 105.265-7.88 4.738 4.738 0 00-5.265 7.88zm27.56-26.05h5.15l7.485 8.789H44.293v-8.79zm4.532 1.373h-3.159v6.043h8.31l-5.15-6.043zM2.54 2.06h6.798v1.373H2.54V2.06zm6.869 6.386H0V9.82h9.408V8.446zM2.54 14.901h6.798v1.373H2.54v-1.373z" fill="#0029FF"/></svg>
